X: 1134
T: Four Bare Legs Together
M: 9/8
L: 1/8
R: slip jig
K: G Major
|: B2 c dcB cBA | G2 A B2 A GFE | cBc d^cd e2 E | E2 A A2 B cBA :|
G2 g gag f2 e | d2 B B2 A GFE | e2 a aba g2 f | eaa a2 b c'ba |
g2 g gag f2 e | d2 B B2 A GFE | cBc d2 d e2 E | E2 A A2 B cBA ||
